svg/set/YWOE/WM.svg

<?xml version="1.0" encoding="UTF-8" standalone="no"?>
<svg
   width="149.80098"
   height="68"
   viewBox="0 0 149.80098 68"
   version="1.1"
   xml:space="preserve"
   style="clip-rule:evenodd;fill-rule:evenodd;stroke-linejoin:round;stroke-miterlimit:2"
   id="svg1"
   xmlns="http://www.w3.org/2000/svg"
   xmlns:svg="http://www.w3.org/2000/svg"><defs
   id="defs1" />
    <g
   transform="translate(-4.8,-3.8)"
   id="g1">
        <path
   d="m 146.8,5.2 c 0.3,0.4 7.9,11.2 7.8,32.7 0,21.3 -7.6,32 -7.9,32.5 l -1,1.4 H 58.9 c -1.5,0 -2.9,-1 -3.3,-2.5 -0.4,-1.5 0.2,-3.1 1.5,-3.9 0.2,-0.1 4.9,-3.2 3.3,-6.9 L 53.8,43.6 c 0,0 -0.1,0.1 -0.2,0.1 -6.3,2.8 -15.6,8.9 -15.6,13.2 0,6 2.4,8.2 2.8,8.5 1.4,0.8 1.9,2.3 1.5,3.8 -0.4,1.5 -1.8,2.5 -3.4,2.5 H 8.3 c -1.9,0 -3.5,-1.6 -3.5,-3.5 v -0.6 c 0,-1.1 0.4,-2 1.2,-2.7 0,-0.1 4.2,-3.6 6.6,-9 L 30.9,15.1 C 31,14.7 31,14.5 30.9,14.2 30.3,12.7 27.7,11.1 26.4,10.5 24.9,9.8 24.1,8.2 24.4,6.6 24.7,5 26.2,3.8 27.8,3.8 h 118 z M 143.6,8 H 78.2 c -2.1,0 -4.4,1.3 -5.6,3.2 -0.6,0.9 -1.1,2.2 -0.4,3.7 0.1,0.3 14.2,32 18.7,41.8 4.7,10.4 16.8,10.8 18.1,10.8 h 34.7 c 1.2,-1.8 6.9,-11.8 6.9,-29.7 -0.1,-18 -5.8,-28 -7,-29.8 z m -30.5,36.6 0.2,-0.1 2.6,-5.7 h 0.2 V 50 H 92.3 l -0.1,-0.2 c 2.4,-2.9 4.6,-5.6 6.6,-8.3 2,-2.6 3.7,-5.1 5.1,-7.5 1.4,-2.4 2.5,-4.6 3.3,-6.6 0.8,-2.1 1.2,-4 1.2,-5.7 0,-2 -0.5,-3.4 -1.4,-4.3 -0.9,-0.9 -2,-1.4 -3.3,-1.4 -0.8,0 -1.6,0.2 -2.2,0.5 -0.6,0.3 -1.1,0.8 -1.5,1.3 -0.4,0.5 -0.7,1.2 -0.9,1.9 -0.2,0.7 -0.3,1.4 -0.3,2.2 0,0.5 0,1 0.1,1.4 0.1,0.5 0.2,0.9 0.3,1.2 L 99,24.7 93.2,17.4 c 1.2,-1.2 2.8,-2.2 4.6,-3 1.8,-0.8 3.8,-1.2 6.1,-1.2 1.6,0 3.1,0.2 4.5,0.6 1.4,0.4 2.7,1 3.8,1.8 1.1,0.8 2,1.7 2.6,2.9 0.7,1.2 1,2.5 1,4.1 0,1.8 -0.4,3.5 -1.2,5.1 -0.8,1.5 -1.9,3.1 -3.3,4.8 -1.4,1.6 -3.1,3.4 -5,5.4 -1.9,1.9 -4,4.2 -6.2,6.9 h 13 z m 28.4,-0.8 V 51 c -6.6,-0.1 -7.7,1.1 -7.7,1.1 l 0.1,-9.1 h -11.8 l -3.8,-3.4 22.6,-27.4 0.3,-0.3 v 27.5 h 5.2 z m -18.4,-4.4 h 10.8 V 25.5 l -10.8,13.3 z m -61.9,27.9 31.9,0.1 c -2,-1.5 -4.8,-4.3 -6.8,-8.8 L 67.2,15.8 C 65.6,12.3 67,9.6 68.8,8 H 30.6 c 1.6,1 3.4,2.6 4.1,4.7 0.6,1.4 0.5,2.8 -0.1,4.2 L 16.4,57.7 C 14.3,62.5 11,65.9 9.5,67.4 H 37 C 35.6,65.8 33.8,62.5 33.8,56.8 33.8,50 43.9,43.8 49,41.1 H 34.5 L 46,15.4 64.4,56.5 c 2.2,4.9 -1,8.8 -3.2,10.8 z"
   id="path1" />
    </g>
</svg>

<?xml version="1.0" encoding="UTF-8" standalone="no"?>
<!DOCTYPE svg PUBLIC "-//W3C//DTD SVG 1.1//EN" "http://www.w3.org/Graphics/SVG/1.1/DTD/svg11.dtd">
<svg width="100%" height="100%" viewBox="0 0 160 75" version="1.1" xmlns="http://www.w3.org/2000/svg" xmlns:xlink="http://www.w3.org/1999/xlink" xml:space="preserve" xmlns:serif="http://www.serif.com/" style="fill-rule:evenodd;clip-rule:evenodd;stroke-linejoin:round;stroke-miterlimit:2;">
    <g transform="matrix(1,0,0,1,0.299511,-0.3)">
        <path d="M146.8,5.2C147.1,5.6 154.7,16.4 154.6,37.9C154.6,59.2 147,69.9 146.7,70.4L145.7,71.8L58.9,71.8C57.4,71.8 56,70.8 55.6,69.3C55.2,67.8 55.8,66.2 57.1,65.4C57.3,65.3 62,62.2 60.4,58.5L53.8,43.6C53.8,43.6 53.7,43.7 53.6,43.7C47.3,46.5 38,52.6 38,56.9C38,62.9 40.4,65.1 40.8,65.4C42.2,66.2 42.7,67.7 42.3,69.2C41.9,70.7 40.5,71.7 38.9,71.7L8.3,71.7C6.4,71.7 4.8,70.1 4.8,68.2L4.8,67.6C4.8,66.5 5.2,65.6 6,64.9C6,64.8 10.2,61.3 12.6,55.9L30.9,15.1C31,14.7 31,14.5 30.9,14.2C30.3,12.7 27.7,11.1 26.4,10.5C24.9,9.8 24.1,8.2 24.4,6.6C24.7,5 26.2,3.8 27.8,3.8L145.8,3.8L146.8,5.2ZM143.6,8L78.2,8C76.1,8 73.8,9.3 72.6,11.2C72,12.1 71.5,13.4 72.2,14.9C72.3,15.2 86.4,46.9 90.9,56.7C95.6,67.1 107.7,67.5 109,67.5L143.7,67.5C144.9,65.7 150.6,55.7 150.6,37.8C150.5,19.8 144.8,9.8 143.6,8ZM113.1,44.6L113.3,44.5L115.9,38.8L116.1,38.8L116.1,50L92.3,50L92.2,49.8C94.6,46.9 96.8,44.2 98.8,41.5C100.8,38.9 102.5,36.4 103.9,34C105.3,31.6 106.4,29.4 107.2,27.4C108,25.3 108.4,23.4 108.4,21.7C108.4,19.7 107.9,18.3 107,17.4C106.1,16.5 105,16 103.7,16C102.9,16 102.1,16.2 101.5,16.5C100.9,16.8 100.4,17.3 100,17.8C99.6,18.3 99.3,19 99.1,19.7C98.9,20.4 98.8,21.1 98.8,21.9C98.8,22.4 98.8,22.9 98.9,23.3C99,23.8 99.1,24.2 99.2,24.5L99,24.7L93.2,17.4C94.4,16.2 96,15.2 97.8,14.4C99.6,13.6 101.6,13.2 103.9,13.2C105.5,13.2 107,13.4 108.4,13.8C109.8,14.2 111.1,14.8 112.2,15.6C113.3,16.4 114.2,17.3 114.8,18.5C115.5,19.7 115.8,21 115.8,22.6C115.8,24.4 115.4,26.1 114.6,27.7C113.8,29.2 112.7,30.8 111.3,32.5C109.9,34.1 108.2,35.9 106.3,37.9C104.4,39.8 102.3,42.1 100.1,44.8L113.1,44.8L113.1,44.6ZM141.5,43.8L141.5,51C134.9,50.9 133.8,52.1 133.8,52.1L133.9,43L122.1,43L118.3,39.6L140.9,12.2L141.2,11.9L141.2,39.4L146.4,39.4L141.5,43.8ZM123.1,39.4L133.9,39.4L133.9,25.5L123.1,38.8L123.1,39.4ZM61.2,67.3L93.1,67.4C91.1,65.9 88.3,63.1 86.3,58.6L67.2,15.8C65.6,12.3 67,9.6 68.8,8L30.6,8C32.2,9 34,10.6 34.7,12.7C35.3,14.1 35.2,15.5 34.6,16.9L16.4,57.7C14.3,62.5 11,65.9 9.5,67.4L37,67.4C35.6,65.8 33.8,62.5 33.8,56.8C33.8,50 43.9,43.8 49,41.1L34.5,41.1L46,15.4L64.4,56.5C66.6,61.4 63.4,65.3 61.2,67.3Z"/>
    </g>
</svg>
